Hatter-kde-dark/actions/16/media-track-queue-amarok.svg

<?xml version="1.0" encoding="UTF-8"?>
<svg viewBox="0 0 16 16" xmlns="http://www.w3.org/2000/svg">
 <defs id="defs3051">
  <style id="current-color-scheme" type="text/css">.ColorScheme-Text {
        color:#dedede;
      }
      .ColorScheme-Highlight {
        color:#3daee9;
      }</style>
 </defs>
 <path class="ColorScheme-Text" d="m3 2v1h1v2h-1v1h3v-1h-1v-2h1v-1h-3zm5 0v1h6v-1h-6zm0 2v1h4v-1h-4zm-6 4v1h1v2h-1v1h5v-1h-1v-2h1v-1h-5zm2 1h1v2h-1v-2zm8 4v1h2v-1h-2z" fill="currentColor"/>
 <path class="ColorScheme-Highlight" d="m14 11h-5l2.5-3z" fill="currentColor"/>
</svg>

<svg xmlns="http://www.w3.org/2000/svg" viewBox="0 0 16 16">
  <defs id="defs3051">
    <style type="text/css" id="current-color-scheme">
      .ColorScheme-Text {
        color:#dedede;
      }
      .ColorScheme-Highlight {
        color:#3daee9;
      }
      </style>
  </defs>
  <path 
        style="fill:currentColor;fill-opacity:1;stroke:none"
        d="M 3 2 L 3 3 L 4 3 L 4 5 L 3 5 L 3 6 L 6 6 L 6 5 L 5 5 L 5 3 L 6 3 L 6 2 L 3 2 z M 8 2 L 8 3 L 14 3 L 14 2 L 8 2 z M 8 4 L 8 5 L 12 5 L 12 4 L 8 4 z M 2 8 L 2 9 L 3 9 L 3 11 L 2 11 L 2 12 L 7 12 L 7 11 L 6 11 L 6 9 L 7 9 L 7 8 L 2 8 z M 4 9 L 5 9 L 5 11 L 4 11 L 4 9 z M 12 13 L 12 14 L 14 14 L 14 13 L 12 13 z "
        class="ColorScheme-Text"
        />
  <path
        style="fill:currentColor;fill-opacity:1;stroke:none"
        d="M 14,11 9,11 11.5,8 Z"
        class="ColorScheme-Highlight"
      />
</svg>
